files/2/128x128/places/folder-download.svg

<?xml version="1.0" encoding="UTF-8" standalone="no"?>
<svg
   xmlns:dc="http://purl.org/dc/elements/1.1/"
   xmlns:cc="http://creativecommons.org/ns#"
   xmlns:rdf="http://www.w3.org/1999/02/22-rdf-syntax-ns#"
   xmlns:svg="http://www.w3.org/2000/svg"
   xmlns="http://www.w3.org/2000/svg"
   xmlns:sodipodi="http://sodipodi.sourceforge.net/DTD/sodipodi-0.dtd"
   xmlns:inkscape="http://www.inkscape.org/namespaces/inkscape"
   width="128"
   height="128"
   viewBox="0 0 128 128"
   id="svg2993"
   version="1.1"
   inkscape:version="0.48.5 r10040"
   sodipodi:docname="folder-download.svg">
  <metadata
     id="metadata3015">
    <rdf:RDF>
      <cc:Work
         rdf:about="">
        <dc:format>image/svg+xml</dc:format>
        <dc:type
           rdf:resource="http://purl.org/dc/dcmitype/StillImage" />
      </cc:Work>
    </rdf:RDF>
  </metadata>
  <defs
     id="defs3013" />
  <sodipodi:namedview
     pagecolor="#ffffff"
     bordercolor="#666666"
     borderopacity="1"
     objecttolerance="10"
     gridtolerance="10"
     guidetolerance="10"
     inkscape:pageopacity="0"
     inkscape:pageshadow="2"
     inkscape:window-width="1280"
     inkscape:window-height="969"
     id="namedview3011"
     showgrid="false"
     inkscape:zoom="5.6568543"
     inkscape:cx="62.220046"
     inkscape:cy="57.758866"
     inkscape:window-x="0"
     inkscape:window-y="0"
     inkscape:window-maximized="1"
     inkscape:current-layer="svg2993">
    <inkscape:grid
       type="xygrid"
       id="grid4333" />
  </sodipodi:namedview>
  <path
     style="fill:#e9b080;fill-opacity:1;stroke:none"
     d="m 18,15 c -2.927834,0 -6,3 -6,6.000001 l 0,2 -6,0 c -2.940198,0 -6,2.99066 -6,6 L 0,107 c 0,4 2,6 6,6 l 116,0 c 3.13523,0 6,-2.71669 6,-6 l 0,-67.999999 c 0,-3.009856 -2.91008,-6 -6,-6 l -6,0 0,-12 C 116,18.077688 113.09356,15 110,15 z"
     id="path6-6"
     inkscape:connector-curvature="0"
     sodipodi:nodetypes="ssccssssscccsss" />
  <path
     style="fill:#000000;fill-opacity:0.32156864"
     inkscape:connector-curvature="0"
     id="path3003"
     d="m 51.34375,72.003906 c -0.882812,0.04297 -1.710938,0.378906 -2.335938,0.929688 -1.242187,1.097656 -1.359374,2.960937 -0.21875,4.136718 L 59.292969,87.0625 c 0.742187,0.632812 1.808593,1.007812 2.84375,0.925781 0.84375,-0.05078 1.660156,-0.414062 2.261719,-0.925781 l 10.503906,-9.632812 c 0.667968,-0.558594 1.066406,-1.339844 1.09375,-2.140626 0.0625,-1.261718 -0.851563,-2.507812 -2.1875,-3 -1.335938,-0.492187 -3.011719,-0.199218 -4.011719,0.714844 l -7.804687,6.851563 -8.167969,-7.207031 c -0.6875,-0.488282 -1.597657,-0.683594 -2.480469,-0.644532 z" />
  <path
     style="fill:#000000;fill-opacity:0.32156864"
     inkscape:connector-curvature="0"
     id="path3005"
     d="m 62,52 c -1.046875,0 -2,1.0625 -2,2.25 l 0,11.414062 c -0.03516,1.210938 0.933594,2.339844 2,2.332032 0.05859,0.0039 0.125,0.0039 0.1875,0 1.003906,-0.09766 1.851562,-1.1875 1.8125,-2.332032 L 64,54.25 C 64,53.0625 63.046875,52 62,52 z" />
  <path
     style="fill:#000000;fill-opacity:0.32156864"
     inkscape:connector-curvature="0"
     id="path3007"
     d="m 54,60 c -1.136719,0 -2.148438,0.835938 -1.980469,1.625 l 0,4.933594 c -0.04687,0.789062 1.042969,1.511718 2.167969,1.4375 0.980469,-0.08203 1.835938,-0.746094 1.792969,-1.4375 l 0,-4.933594 C 56.148438,60.835938 55.136719,60 54,60 z" />
  <path
     style="fill:#000000;fill-opacity:0.32156864"
     inkscape:connector-curvature="0"
     id="path3009"
     d="m 70,60 c -1.136719,0 -2.148438,0.835938 -1.980469,1.625 l 0,4.933594 c -0.04687,0.789062 1.042969,1.511718 2.167969,1.4375 0.980469,-0.08203 1.835938,-0.746094 1.792969,-1.4375 l 0,-4.933594 C 72.148438,60.835938 71.136719,60 70,60 z" />
  <path
     sodipodi:nodetypes="sscsssssssscsssssscssssssss"
     inkscape:connector-curvature="0"
     style="fill:#000000;fill-opacity:0.32156863;stroke:none"
     d="m 18,15 c -2.927834,0 -6,3 -6,6.000001 l 0,2 -6,0 c -2.940198,0 -6,2.99066 -6,6 L 0,107 c 0,4 2,6 6,6 l 116,0 c 3.13523,0 6,-2.71669 6,-6 l 0,-67.999999 c 0,-3.009856 -2.91008,-6 -6,-6 l -6,0 0,-12 C 116,18.077688 113.09356,15 110,15 z m -12,12.000001 68.000003,0 c 1.18035,0 2,1.02954 2,2 l 0,8 45.999997,0 c 1.0111,0 2,1.017484 2,2 L 124,107 c 0,1.04258 -0.95753,2 -2,2 L 6,109 c -0.92859,0 -2,-0.79269 -2,-2 L 4,29.000001 c 0,-0.98481 1.033057,-2 2,-2 z"
     id="path3778" />
</svg>

<svg width="128" xmlns="http://www.w3.org/2000/svg" height="128" viewBox="0 0 128 128" xmlns:xlink="http://www.w3.org/1999/xlink">
<g style="stroke:#e9a439">
<path style="fill:#e9a439" d="M 4.34668 24.5 C 3.887695 24.453125 3.5 23.992188 3.5 23.498047 L 3.5 4.506836 C 3.5 3.979492 3.946289 3.5 4.4375 3.5 L 27.5625 3.5 C 28.053711 3.5 28.5 3.979492 28.5 4.506836 L 28.5 20.742188 C 28.5 21.268555 27.782227 22.025391 27.290039 22.025391 L 18.825195 22.010742 L 18.825195 23.334961 C 18.825195 23.856445 18.414062 24.5 17.925781 24.5 L 4.4375 24.5 C 4.408203 24.5 4.378906 24.5 4.34668 24.5 Z " transform="matrix(4 0 0 4 0 4)"/>
<path style="fill:#f5c14e" d="M 1.549805 5.5 C 0.980469 5.546875 0.5 6.007812 0.5 6.501953 L 0.5 25.493164 C 0.5 26.020508 1.052734 26.5 1.663086 26.5 L 30.336914 26.5 C 30.947266 26.5 31.5 26.020508 31.5 25.493164 L 31.5 9.257812 C 31.5 8.731445 30.609375 7.974609 30 7.974609 L 19.50293 7.989258 L 19.50293 6.665039 C 19.50293 6.143555 18.993164 5.5 18.387695 5.5 L 1.663086 5.5 C 1.625977 5.5 1.589844 5.5 1.549805 5.5 Z " transform="matrix(4 0 0 4 0 4)"/>
</g>
<g style="fill:#e9a439">
<path d="M 51.34375 72.003906 C 50.460938 72.046875 49.632812 72.382812 49.007812 72.933594 C 47.765625 74.03125 47.648438 75.894531 48.789062 77.070312 L 59.292969 87.0625 C 60.035156 87.695312 61.101562 88.070312 62.136719 87.988281 C 62.980469 87.9375 63.796875 87.574219 64.398438 87.0625 L 74.902344 77.429688 C 75.570312 76.871094 75.96875 76.089844 75.996094 75.289062 C 76.058594 74.027344 75.144531 72.78125 73.808594 72.289062 C 72.472656 71.796875 70.796875 72.089844 69.796875 73.003906 L 61.992188 79.855469 L 53.824219 72.648438 C 53.136719 72.160156 52.226562 71.964844 51.34375 72.003906 Z "/>
<path d="M 62 52 C 60.953125 52 60 53.0625 60 54.25 L 60 65.664062 C 59.964844 66.875 60.933594 68.003906 62 67.996094 C 62.058594 68 62.125 68 62.1875 67.996094 C 63.191406 67.898438 64.039062 66.808594 64 65.664062 L 64 54.25 C 64 53.0625 63.046875 52 62 52 Z "/>
<path d="M 54 60 C 52.863281 60 51.851562 60.835938 52.019531 61.625 L 52.019531 66.558594 C 51.972656 67.347656 53.0625 68.070312 54.1875 67.996094 C 55.167969 67.914062 56.023438 67.25 55.980469 66.558594 L 55.980469 61.625 C 56.148438 60.835938 55.136719 60 54 60 Z "/>
<path d="M 70 60 C 68.863281 60 67.851562 60.835938 68.019531 61.625 L 68.019531 66.558594 C 67.972656 67.347656 69.0625 68.070312 70.1875 67.996094 C 71.167969 67.914062 72.023438 67.25 71.980469 66.558594 L 71.980469 61.625 C 72.148438 60.835938 71.136719 60 70 60 Z "/>
</g>
</svg>
